X: 11
T: Jumping Ireland
%C: Mr. Gray
%R: slip-jig
B: Mr. Gray "24 Country Dances for the Year 1805" p.6 #1
S: http://folkopedia.efdss.org/images/9/92/ThompsGray_24_1805.PDF  2013-12-2
Z: 2013 John Chambers <jc:trillian.mit.edu>
M: 9/8
L: 1/8
K: C
|:\
gec ({d}cBc) dBG | cAF {G}FEF GEC |\
gec gfd gec | Aag ^fdf g3 :|
|:\
geg geg afa | fdf fdf gec |\
ABc def gec | Afe dcB c3 :|
% - - - - - - - - - - - - - - - - - - - - - - - - -
%%begintext align
%% Whole Figure with the top Cu:, down
%% the mid: up again, & Allemande.
%%endtext
